modules/coreui-icons-brand/icons/slack.svg

<svg version="1.1" xmlns="http://www.w3.org/2000/svg" width="32" height="32" viewBox="0 0 32 32">
<title>slack</title>
<path d="M6.724 20.219c-0.005 1.855-1.505 3.36-3.36 3.365-1.859-0.005-3.359-1.505-3.364-3.365 0.005-1.855 1.511-3.355 3.364-3.359h3.36zM8.416 20.219c0.005-1.855 1.511-3.355 3.365-3.359 1.849 0.004 3.355 1.504 3.359 3.359v8.417c-0.004 1.853-1.504 3.359-3.359 3.364-1.86-0.005-3.36-1.511-3.365-3.364zM11.781 6.724c-1.855-0.005-3.36-1.505-3.365-3.36 0.005-1.853 1.505-3.359 3.365-3.364 1.855 0.005 3.355 1.511 3.359 3.364v3.36zM11.781 8.416c1.855 0.005 3.355 1.505 3.359 3.365-0.004 1.855-1.504 3.355-3.359 3.359h-8.417c-1.853-0.004-3.359-1.504-3.364-3.359 0.005-1.86 1.511-3.36 3.364-3.365zM25.276 11.781c0.005-1.86 1.505-3.36 3.36-3.365 1.853 0.005 3.359 1.505 3.364 3.365-0.005 1.855-1.511 3.355-3.364 3.359h-3.36zM23.584 11.781c-0.005 1.855-1.511 3.355-3.365 3.359-1.855-0.004-3.355-1.509-3.359-3.359v-8.417c0.004-1.853 1.504-3.359 3.359-3.364 1.86 0.005 3.36 1.505 3.365 3.364zM20.219 25.276c1.86 0 3.36 1.505 3.365 3.36-0.005 1.859-1.505 3.359-3.365 3.364-1.855-0.005-3.355-1.511-3.359-3.364v-3.36zM20.219 23.584c-1.855-0.005-3.355-1.511-3.359-3.365 0.004-1.855 1.504-3.355 3.359-3.359h8.417c1.853 0.004 3.359 1.504 3.364 3.359-0.005 1.86-1.505 3.36-3.364 3.365z"></path>
</svg>

<svg xmlns="http://www.w3.org/2000/svg" width="32" height="32" viewBox="0 0 32 32"><path d="M6.724 20.219a3.372 3.372 0 01-3.36 3.365A3.37 3.37 0 010 20.219a3.37 3.37 0 013.364-3.359h3.36zm1.692 0a3.37 3.37 0 013.365-3.359 3.368 3.368 0 013.359 3.359v8.417A3.37 3.37 0 0111.781 32a3.373 3.373 0 01-3.365-3.364zm3.365-13.495a3.372 3.372 0 01-3.365-3.36A3.373 3.373 0 0111.781 0a3.37 3.37 0 013.359 3.364v3.36zm0 1.692a3.367 3.367 0 013.359 3.365 3.364 3.364 0 01-3.359 3.359H3.364A3.37 3.37 0 010 11.781a3.373 3.373 0 013.364-3.365zm13.495 3.365a3.368 3.368 0 013.36-3.365A3.373 3.373 0 0132 11.781a3.37 3.37 0 01-3.364 3.359h-3.36zm-1.692 0a3.37 3.37 0 01-3.365 3.359 3.368 3.368 0 01-3.359-3.359V3.364A3.37 3.37 0 0120.219 0a3.37 3.37 0 013.365 3.364zm-3.365 13.495c1.86 0 3.36 1.505 3.365 3.36A3.37 3.37 0 0120.219 32a3.37 3.37 0 01-3.359-3.364v-3.36zm0-1.692a3.37 3.37 0 01-3.359-3.365 3.364 3.364 0 013.359-3.359h8.417A3.37 3.37 0 0132 20.219a3.37 3.37 0 01-3.364 3.365z"/></svg>
